X:1
T:Annie Laurie
C:arr. Carlo Minasi
M:2/4
L:1/8
B:Chappell's One Hundred Scotch Melodies
B:Arranged for the Concertina by Carlo Minasi
Q:"Andante  "1/4=70
Z:Peter Dunk 2012
K:C
!p!CC/C/ [cE][cE]|([BFC]A)z [AF]|\
([GE]E) (ED/C/)|([E2C2G,2][DB,G,]) E/D/|CC/C/ [cE][cE]|
%
([BFC]A)z A|(GF/E/) (E>D)|C2 z G|\
!crescendo(! [cE]>c [dG]>d !crescendo)!|\
[ec] z G|!crescendo(! [cAEA,]>c [dAF]>d !crescendo)!|
%
[e2^G2E2] (ed|[cAFC]B [AF][c/A/][A/F/]|\
[GE]E) E>D|C/c E/ E>D|C3 z|]

